assets/images/ico_tw2.svg

<svg width="25" height="22" viewBox="0 0 25 22" fill="none" xmlns="http://www.w3.org/2000/svg">
<path d="M23.458 2.42839C23.0809 2.60747 22.6932 2.75861 22.2971 2.88131C22.7661 2.3134 23.1237 1.64518 23.3419 0.913953C23.3909 0.750049 23.3401 0.570641 23.2143 0.463443C23.0887 0.356163 22.9141 0.343313 22.7757 0.43111C21.9345 0.965355 21.0269 1.34929 20.0753 1.5738C19.1167 0.570807 17.8147 0 16.4687 0C13.6276 0 11.3161 2.47499 11.3161 5.51713C11.3161 5.75673 11.3303 5.995 11.3583 6.22996C7.83276 5.8985 4.55511 4.04298 2.30435 1.08665C2.22414 0.981273 2.10057 0.924483 1.97405 0.935343C1.84746 0.945955 1.73373 1.02239 1.66977 1.13987C1.21327 1.97863 0.971938 2.93793 0.971938 3.91398C0.971938 5.24338 1.4152 6.50471 2.1982 7.49029C1.96012 7.402 1.72908 7.29165 1.50857 7.16057C1.39019 7.09002 1.24571 7.0911 1.1281 7.16331C1.01042 7.23552 0.936632 7.36834 0.933535 7.5135C0.932993 7.53796 0.932993 7.56242 0.932993 7.58721C0.932993 9.57156 1.93039 11.3581 3.45528 12.3318C3.32428 12.3178 3.19335 12.2975 3.06328 12.2709C2.92917 12.2434 2.79128 12.2938 2.70085 12.4033C2.61026 12.5127 2.5803 12.6653 2.62203 12.8046C3.18646 14.6915 4.63966 16.0794 6.39644 16.5026C4.93937 17.4798 3.2731 17.9916 1.5239 17.9916C1.15892 17.9916 0.791846 17.9687 0.432592 17.9232C0.254127 17.9004 0.083481 18.0133 0.0227021 18.195C-0.0380769 18.3768 0.0263411 18.5795 0.178172 18.6837C2.42529 20.2265 5.02361 21.042 7.69208 21.042C12.938 21.042 16.2196 18.3932 18.0488 16.171C20.3298 13.4002 21.6379 9.73273 21.6379 6.109C21.6379 5.95761 21.6358 5.80473 21.6314 5.65235C22.5313 4.92635 23.3061 4.04771 23.9366 3.03783C24.0324 2.88446 24.022 2.68175 23.9111 2.54057C23.8003 2.39929 23.6156 2.35361 23.458 2.42839Z" fill="white"/>
</svg>

<svg width="25" height="22" fill="none" xmlns="http://www.w3.org/2000/svg"><path d="M23.458 2.428a8.72 8.72 0 01-1.16.453A5.604 5.604 0 0023.341.914a.432.432 0 00-.128-.45.366.366 0 00-.438-.033 8.792 8.792 0 01-2.7 1.143C19.115.57 17.814 0 16.468 0c-2.841 0-5.153 2.475-5.153 5.517 0 .24.014.478.042.713-3.525-.332-6.803-2.187-9.054-5.143a.375.375 0 00-.33-.152.386.386 0 00-.304.205 5.817 5.817 0 00-.698 2.774c0 1.33.443 2.59 1.226 3.576a4.226 4.226 0 01-.69-.33.365.365 0 00-.38.003.42.42 0 00-.194.35l-.001.074c0 1.985.997 3.771 2.522 4.745a4.168 4.168 0 01-.392-.061.372.372 0 00-.362.132.437.437 0 00-.079.402c.564 1.886 2.018 3.274 3.774 3.698a8.675 8.675 0 01-5.963 1.42.386.386 0 00-.41.272.43.43 0 00.155.489c2.247 1.543 4.846 2.358 7.514 2.358 5.246 0 8.528-2.649 10.357-4.871 2.28-2.77 3.589-6.438 3.589-10.062 0-.151-.002-.304-.007-.457.9-.726 1.675-1.604 2.306-2.614a.438.438 0 00-.026-.497.37.37 0 00-.453-.113z" fill="#fff"/></svg>
